X:349
T:Reel 349
L:1/8
M: 4/4
K: D Major
DEFDEFED|(3FGABABdA2|F2FFEDEF|GAFDEDB,D|DEFDEFED|(3FGABABdA2|FDFEDFAB|1GEFED3C:|2GEFED2FG|:ABdefdd2|ABBAFAd2|ABdef2ed|BAFABGE2|ABdefdd2|ABAFFEFG|ABAFABAF|1GFEFDEFG:|2GFEFD2FG|.abc